X: 36038
T: Scarce O' Tatties
R: jig
M: 6/8
K: Amixolydian
A2ee fg|ed Bd BG|~A3 e fg|
ed BA Be|~a3~g3|~f3~e3|A ~e3 fg|ed B~A3:|
ae g a2f|g{a}g fe AA|ae g a{b}af|g2f e3|
~e3~A3|d ~f3 ee|~A3 e fg|ed B ~A3:|

